src/22/panel/dino-status-online.svg

<svg xmlns="http://www.w3.org/2000/svg" width="22" height="22" version="1.1">
 <defs>
  <style id="current-color-scheme" type="text/css">
   .ColorScheme-Text { color:#dfdfdf; } .ColorScheme-Highlight { color:#4285f4; }
  </style>
 </defs>
 <path style="fill:currentColor" class="ColorScheme-Text" d="M 11 3 A 8 8 0 0 0 3 11 A 8 8 0 0 0 11 19 A 8 8 0 0 0 19 11 A 8 8 0 0 0 11 3 z M 12.984375 4.9355469 A 1.0001 1.0001 0 0 1 14 5.9492188 L 14 9.859375 A 1.0001 1.0001 0 0 1 14 10.185547 L 14 13.982422 A 1.0001 1.0001 0 0 1 14 14 L 14 14.986328 A 1.0001 1.0001 0 1 1 12 15 L 9 15 L 8 14 L 8 10.017578 L 9 9.0175781 L 12 9.0175781 L 12 5.9492188 A 1.0001 1.0001 0 0 1 12.984375 4.9355469 z M 10 11.017578 L 10 13 L 12 13 L 12 11.017578 L 10 11.017578 z"/>
</svg>

<svg xmlns="http://www.w3.org/2000/svg" width="22" height="22"><defs><style id="current-color-scheme" type="text/css"></style></defs><path d="M11 3a8 8 0 0 0-8 8 8 8 0 0 0 8 8 8 8 0 0 0 8-8 8 8 0 0 0-8-8zm1.984 1.936A1 1 0 0 1 14 5.949v3.91a1 1 0 0 1 0 .327v3.796A1 1 0 0 1 14 14v.986A1 1 0 1 1 12 15H9l-1-1v-3.982l1-1h3V5.949a1 1 0 0 1 .984-1.013zM10 11.018V13h2v-1.982h-2z" fill="currentColor" color="#bebebe"/></svg>
